X: 1126
T: The Morning Dew
B: max new tunes
B: steve tunes
M:4/4
Q: 1/4=100
K:Edorian
V:1 
"Em"E3B {d}"D"BAFD|"Em"E2dB "D"AGFG|~"Em"E3B {d}"D"BAFA|"Em"B2dB "D"ADFD|
~"Em"E3B {d}"D"BAFD|"Em"E2dB "D"AGFG|"Em"E3B {d}"D"BAFA|"Em"BddB "D"ADFA||
"Em"B2eB fBeB|~"Em"B2eB "D"ADFA|"Em"B2eB fBeB|"Em"dcdB "D"ADFA|
"Em"B2eB fBeB|~"Em"B2eB "D"ADFA|(3"Em"Bcd eg e~f2e|"Em"dcdB "D"ADFA||
|:"Em"B2EB GBEB|"Em"B2EB "D"ADFA|"Em"B2EB GBEB|1 "Em"BAdB "D"ADFA:|2 "Em"BAdB "D"ADFD||
% abcbook-tune_id 62b658473a757b52f99d227c


% abcbook-boost 11
% abcbook-tablature 
% abcbook-transpose 
% abcbook-lastupdated 1656222929497
% abcbook-soundfonts 
% abcbook-repeats 3


